X: 10
T: The Italian Manfreda
R: jig
M: 6/8
L: 1/8
Z: 2010 John Chambers <jc:trillian.mit.edu>
B: Anonymous manuscript tune book (1800-1840) p.21
F: http://www.asaplive.com/archive/browse_by_collection.asp
N: The asaplive.com web site is complex, and links to its files don't usually work.
K: G
D |\
GAB BcA | AGG G2B/c/ | dBG GAF | AGG G2D |\
GAB BcA | AGG G2G | FDF FGA | {B}AGG G2 :|
|: g |\
gfg afc | cBd d2g | gfg afc | cBc d2d |\
{a}gfg {a}gfg | ece efg | ded cBA | {B}AGG G2 :|


%%sep 5 1 500

